static/assets/svg/human/humanClothes/female_shirt8_stickers/female_shirt8_sticker13.svg

<svg class="shirtOverlay" width="86" height="380" viewBox="202.715 584.407 86.593 380.048" preserveAspectRatio="xMidYMax" xmlns="http://www.w3.org/2000/svg"><defs><linearGradient x1="187.14" y1="1018.1" x2="530" gradientUnits="userSpaceOnUse" y2="916.65" id="a"><stop offset="0" stop-color="#fff278"/><stop offset="1" stop-color="#fff489"/></linearGradient><linearGradient x1="434.29" y1="1043.8" x2="434.29" gradientUnits="userSpaceOnUse" y2="876.65" id="b"><stop offset="0" stop-color="#f2e251"/><stop offset="1" stop-color="#f3e460"/></linearGradient><linearGradient x1="337.14" y1="1039.5" x2="338.57" gradientUnits="userSpaceOnUse" y2="870.93" id="c"><stop offset="0" stop-color="#f2e251"/><stop offset="1" stop-color="#f4e76d"/></linearGradient><linearGradient x1="250" y1="1043.8" x2="250" gradientUnits="userSpaceOnUse" y2="862.36" id="d"><stop offset="0" stop-color="#f2e251"/><stop offset="1" stop-color="#f4e668"/></linearGradient></defs><path class="clothes" fill="none" d="M202.715 584.431h86.593V700.24h-86.593z"/><path class="clothes" fill="none" d="M-403.988 499.579h1300v550h-1300z"/><g color="#000"><path d="M366.41 837.71c-62.569.528-100.948 1.071-152.296 2.656-15.659 1.355-5.031-5.718-20.632-3.999-1.424 3.764-8.431 10.67-8.384 14.78-28.676 50.234-41.319 100.899-36.005 149.152 1.704 16.084 2.634 32.236 4.264 48.326 2.9 2.602 8.169.38 11.964 1.116 23.703-.113 47.428.291 71.116-.446 3.128-2.109 1.364-7.057 2.022-10.268.53-35.515-.305-71.025-1.429-106.52.159-13.909-.91-27.995 1.104-41.791 1.072-5.167 4.596-12.827 11.071-11.2 6.918 2.686 10.727 10.427 9.732 17.655-.981 34.173.406 68.346 1.294 102.5.407 16.393-.289 32.961.435 49.242 5.013 1.518 11.174.472 16.613 1.029 16.8.277 33.78.951 50.475.209 1.498-4.958.765-10.997 1.216-16.395.824-50.692-.359-101.39-1.082-152.08 2.146-4.658 6.704-10.014 12.366-7.879 6.718 1.693 8.711 9.97 8.576 16.07 1.83 52.406 1.232 104.86 1.915 157.28.721 5.194 7.353 3.42 11.004 3.825 19.193.049 38.453 1.012 57.612-.053 4.083-.894 2.008-6.563 2.538-9.487-1.044-32.576-3.854-65.087-3.932-97.701-.292-18.228-.325-36.458-.459-54.688 3.645-3.332 7.321-8.701 12.656-8.861 4.451 1.373 6.646 5.985 9.688 9.129 2.311 10.781 1.582 22.15 2.491 33.165 2.203 41.928 3.027 83.917 5.19 125.84-.826 5.455 6.043 2.92 9.211 3.685 25.994.768 52.037 1.634 78.018 1.727 3.807-1.041 1.516-6.383 2.381-9.15 1.381-50.077-8.82-86.208-16.823-135.663-3.984-24.616-32.184-59.456-33.533-76.159-12.531 2.226-4.994.1-25.875 5.292-51.954.243-36.248-1.153-88.228-.373-2.091-.005-4.182.012-6.272.022l-.002.013z" fill="url(#a)" transform="matrix(.18257 0 0 .21707 182.507 581.303)"/><path d="M428.76 882.48c-8.915 1.68-9.454 11.755-8.682 19.062-.663 46.805 3.13 93.493 4.68 140.22-3.81 12.008 8.04 9.536 15.788 9.464 9.011-.458 1.728-15.037 3.637-21.284-2.148-44.741-1.526-89.79-7.343-134.25-1.348-4.333-2.037-13.197-8.08-13.214v.002z" fill="url(#b)" transform="matrix(.18257 0 0 .21707 182.507 581.303)"/><path d="M337.7 875.55c-5.373 1.095-7.521 7.158-6.819 12.098-.092 51.353.815 102.71.9 154.06.491 2.965-1.689 9.179 3.196 9.063 3.884-.143 8.022.331 11.719-.715 1.911-33.321.927-66.875.839-100.29-.408-22.973-.196-45.996-1.576-68.929-1.317-3.088-4.917-5.373-8.259-5.29v.003z" fill="url(#c)" transform="matrix(.18257 0 0 .21707 182.507 581.303)"/><path d="M247.85 880.31c-4.307 1.291-8.05 4.65-7.991 9.442-1.958 33.172 1.055 66.384 1.155 99.575.458 19.552.359 39.176 1.099 58.684 3.556 3.188 9.239 1.386 13.616 1.808 2.712-2.182 1.102-7.066 1.864-10.356 1.492-45.945-2.438-91.841-1.707-137.79-.518-4.816 1.043-10.291-.792-14.704-2.458-1.928-4.13-6.161-7.244-6.657v-.002z" fill="url(#d)" transform="matrix(.18257 0 0 .21707 182.507 581.303)"/></g></svg>

<svg class="shirtOverlay" width="86" height="380" viewBox="202.715 584.407 86.5933 380.048" preserveAspectRatio="xMidYMax" xmlns="http://www.w3.org/2000/svg">
  <defs id="svgEditorDefs">
    <path id="svgEditorClosePathDefs" fill="black" style="stroke-width: 0px; stroke: none;" class="clothes"/>
    <linearGradient x1="187.14" y1="1018.1" x2="530" gradientUnits="userSpaceOnUse" y2="916.65002" id="linearGradient5084">
      <stop offset="0" style="stop-color:#fff278" id="stop4969"/>
      <stop offset="1" style="stop-color:#fff489" id="stop4971"/>
    </linearGradient>
    <linearGradient x1="434.29001" y1="1043.8" x2="434.29001" gradientUnits="userSpaceOnUse" y2="876.65002" id="linearGradient5088">
      <stop offset="0" style="stop-color:#f2e251" id="stop4985"/>
      <stop offset="1" style="stop-color:#f3e460" id="stop4987"/>
    </linearGradient>
    <linearGradient x1="337.14001" y1="1039.5" x2="338.57001" gradientUnits="userSpaceOnUse" y2="870.92999" id="linearGradient5090">
      <stop offset="0" style="stop-color:#f2e251" id="stop4977"/>
      <stop offset="1" style="stop-color:#f4e76d" id="stop4979"/>
    </linearGradient>
    <linearGradient x1="250" y1="1043.8" x2="250" gradientUnits="userSpaceOnUse" y2="862.35999" id="linearGradient5092">
      <stop offset="0" style="stop-color:#f2e251" id="stop4999"/>
      <stop offset="1" style="stop-color:#f4e668" id="stop5001"/>
    </linearGradient>
  </defs>
  <rect id="svgEditorBackground" x="202.71499633789062" y="584.4310302734375" width="86.59329986572266" height="115.80899810791016" style="fill: none; stroke: none;" class="clothes"/>
  <rect id="rect-1" x="-403.988" y="499.579" width="1300" height="550" style="fill: none; stroke: none;" class="clothes"/>
  <g transform="matrix(0.134571, 0, 0, 0.141738, 204.30304, 732.255981)">
    <g transform="translate(96.809425,-74.558894)" id="layer1">
      <g transform="matrix(2.1551554,0,0,2.432926,-1852.0849,3436.9849)" id="g6495">
        <g transform="matrix(0.62949,0,0,0.62949,739.3,-1819.8)" id="g5067">
          <path d="M 366.41 837.71 C 303.841 838.238 265.462 838.781 214.114 840.366 C 198.455 841.721 209.083 834.648 193.482 836.367 C 192.058 840.131 185.051 847.037 185.098 851.147 C 156.422 901.381 143.779 952.046 149.093 1000.299 C 150.797 1016.383 151.727 1032.535 153.357 1048.625 C 156.257 1051.227 161.526 1049.005 165.321 1049.741 C 189.024 1049.628 212.749 1050.032 236.437 1049.295 C 239.565 1047.186 237.801 1042.238 238.459 1039.027 C 238.989 1003.512 238.154 968.002 237.03 932.507 C 237.189 918.598 236.12 904.512 238.134 890.716 C 239.206 885.549 242.73 877.889 249.205 879.516 C 256.123 882.202 259.932 889.943 258.937 897.171 C 257.956 931.344 259.343 965.517 260.231 999.671 C 260.638 1016.064 259.942 1032.632 260.666 1048.913 C 265.679 1050.431 271.84 1049.385 277.279 1049.942 C 294.079 1050.219 311.059 1050.893 327.754 1050.151 C 329.252 1045.193 328.519 1039.154 328.97 1033.756 C 329.794 983.064 328.611 932.366 327.888 881.676 C 330.034 877.018 334.592 871.662 340.254 873.797 C 346.972 875.49 348.965 883.767 348.83 889.867 C 350.66 942.273 350.062 994.727 350.745 1047.147 C 351.466 1052.341 358.098 1050.567 361.749 1050.972 C 380.942 1051.021 400.202 1051.984 419.361 1050.919 C 423.444 1050.025 421.369 1044.356 421.899 1041.432 C 420.855 1008.856 418.045 976.345 417.967 943.731 C 417.675 925.503 417.642 907.273 417.508 889.043 C 421.153 885.711 424.829 880.342 430.164 880.182 C 434.615 881.555 436.81 886.167 439.852 889.311 C 442.163 900.092 441.434 911.461 442.343 922.476 C 444.546 964.404 445.37 1006.393 447.533 1048.316 C 446.707 1053.771 453.576 1051.236 456.744 1052.001 C 482.738 1052.769 508.781 1053.635 534.762 1053.728 C 538.569 1052.687 536.278 1047.345 537.143 1044.578 C 538.524 994.501 528.323 958.37 520.32 908.915 C 516.336 884.299 488.136 849.459 486.787 832.756 C 474.256 834.982 481.793 832.856 460.912 838.048 C 408.958 838.291 424.664 836.895 372.684 837.675 C 370.593 837.67 368.502 837.687 366.412 837.697 L 366.41 837.71 Z" style="color:#000000;fill:url(#linearGradient5084)" id="path4945"/>
          <path d="M 428.76 882.48 C 419.845 884.16 419.306 894.235 420.078 901.542 C 419.415 948.347 423.208 995.035 424.758 1041.762 C 420.948 1053.77 432.798 1051.298 440.546 1051.226 C 449.557 1050.768 442.274 1036.189 444.183 1029.942 C 442.035 985.201 442.657 940.152 436.84 895.692 C 435.492 891.359 434.803 882.495 428.76 882.478 L 428.76 882.48 Z" style="color:#000000;fill:url(#linearGradient5088)" id="path4957"/>
          <path d="M 337.7 875.55 C 332.327 876.645 330.179 882.708 330.881 887.648 C 330.789 939.001 331.696 990.358 331.781 1041.708 C 332.272 1044.673 330.092 1050.887 334.977 1050.771 C 338.861 1050.628 342.999 1051.102 346.696 1050.056 C 348.607 1016.735 347.623 983.181 347.535 949.766 C 347.127 926.793 347.339 903.77 345.959 880.837 C 344.642 877.749 341.042 875.464 337.7 875.547 L 337.7 875.55 Z" style="color:#000000;fill:url(#linearGradient5090)" id="path4959"/>
          <path d="M 247.85 880.31 C 243.543 881.601 239.8 884.96 239.859 889.752 C 237.901 922.924 240.914 956.136 241.014 989.327 C 241.472 1008.879 241.373 1028.503 242.113 1048.011 C 245.669 1051.199 251.352 1049.397 255.729 1049.819 C 258.441 1047.637 256.831 1042.753 257.593 1039.463 C 259.085 993.518 255.155 947.622 255.886 901.673 C 255.368 896.857 256.929 891.382 255.094 886.969 C 252.636 885.041 250.964 880.808 247.85 880.312 L 247.85 880.31 Z" style="color:#000000;fill:url(#linearGradient5092)" id="path4961"/>
        </g>
      </g>
    </g>
  </g>
</svg>
